!!!OTL: IN SACHSENLAND LAG EINST EIN SCHLOSS
!!!ARE: Europa, Mitteleuropa, Deutschland
!!!SCT: F0869
!!!YEM: Copyright 1995, estate of Helmut Schaffrath.
**kern
*ICvox
*Ivox
*M6/8
*k[f#]
*G:
{8d
=1
4g
8g
4b
8b
=2
4dd
8dd
4b}
{8b
=3
8.a
16b
8cc
8.d
16e
8f#
=4
4.a
8g
8r}
{8d
=5
4g
8g
4b
8b
=6
4dd
8dd
4b}
{8b
=7
8.a
16b
8cc
8.d
16e
8f#
=8
4.a
8g
8r}
{8d
=9
4a
8a
4a
8a
=10
8cc
8b
8a
4g}
{16g
16a
=11
4a
8a
4a
8a
=12
8cc
8b
8a
4g}
{16g
16a
=13
4b
8b
4b
8g
=14
4.e
4cc}
{8a
=15
4g
8g
8.f#
16e
8f#
=16
4.a
8g
8r}
{16g
16a
=17
4b
8b
4b
8g
=18
4.e
4cc}
{8a
=19
4g
8g
8.f#
16e
8f#
=20
4.a
8g
8r}
==
!!!AGN: erzaehlendes Volks - Lied, Ballade
!!!ONB: ESAC (Essen Associative Code) Database: FINK
!!!AMT: compound duple
!!!AIN: vox
!!!EED: Helmut Schaffrath
!!!EEV: 1.0
*-
